X: 53
T: 40 Year
R: waltz
M: 3/4
K: Eminor
E2F2GD|A2B2dG|e4- ec|g2e2- (3edB|d2B2BG|d2c2B2|
A2B2eg|d2A2AG|AG E3E|A2B3E|A2B3G|
d2B2A2|G3A ED|G2A2B2|A6-|1 A3F GF:|2 d2e2ge||
a4ab|a2g2e2|g3e ga|g2e2cB|cBg3B|BAf2ad-|
d4dB|deg2ea-|a4ab|a2g2b2|ge- e4|e2d2cB|
cB- B2 (3BAG|d2c2B2|BA- A4|c2B2G2|E6-|E6||

